X:6
T:Faraway
C:Pete Jung
S:http://diato.org/tablat.htm
Z:ABC version, with modified chords, by MB
R:Waltz
M:3/4
L:1/8
K:Bm
FA |: "Bm"B2 BA Bd | "F#m"cA F2 FA | "Bm"B2 BA Be | "A"c3A dc | "G"B3A Bd |
"F#m"cB A2 de |1 "D"fe dc BA |"Bm"B2 BA FA :|2 "D"fe dc BA |"Bm"B2 Bc de ||
|: "D"f2 fe fa | "A"ec Ac de | "D"f2 fe fa | "A"e3A de | "Bm"fd Be "A"cA |
"G"dB Gd BG | "Bm"F2 B2 BA |1 "Bm"B3c de :|2 "Bm"B2 BA FA |]
